X: 60
T: Trio. Scherzo	 Op. 8
C: Fryderyk Chopin
%%abc-version 2.0
%%abcx-abcm2ps-target-version 5.9.1 (29 Sep 2008)
%%abc-creator hum2abc beta
%%abcx-conversion-date 2021/10/03 11:23:42
%%abc-edited-by Zofia Niedbalska
%%abcx-initial-encoding-date 2020-08-22
%%humdrum-veritas 918115894
%%humdrum-veritas-data 253539941
%%linebreak <none>
%%barnumbers 0
L: 1/4
M: 3/4
N: Derived from 008-1c-KI-002-violoncello.krn
P: Premier Trio pour Pianoforte, Violon et Violoncelle
Q: "TRIO."
K: G clef=bass
!accent!C [I:setbarnb 2]| 
B,_B,A, | 
G,2F, | 
E,_E,D, | 
D,G,,z[K:clef=tenor] | 
B,CD/!accent!C/ | 
B,C/B,/A, | 
G,GE | 
F/E/!accent!D2 | 
CDE/D/ | 
C=F/E/D | 
CA,A/G/ | 
^F/E/Dz | 
z3 | 
zA,2 | 
Dzz[K:clef=bass] | 
z!accent!B,,A,,/B,,/ | 
C,3 | 
G,,3 | 
C,3 | 
G,,3 | 
G,,/F,,/G,,/A,,/B,,/^D,/ | 
E,/^F,/A,/G,/E,/^C,/ | 
D,z.D,, |[1 
.G,,z :|][2 
.G,,zG, ]|: 
F,=F,E, | 
^D,=D,^C, | 
=C,B,,C, | 
D,E,z | 
!wedge!=F,!wedge!^F,z | 
F,B,,z | 
F,.F,,.F,, | 
.B,,z!accent!B, | 
B,A,G, | 
^D,F,E, | 
C,3 | 
B,,zB, | 
A,/^G,/B,/A,/=G, | 
!accent!F,2E, | 
C,3 | 
!wedge!B,,F,,2 | 
B,,F,,2 | 
B,,zz | 
.F,,.F,.F, | 
.B,/ z/!accent!E2 | 
^D!accent!E2 | 
^D2z | 
.F,,.F,.F, | 
.B,,/ z/!accent!F,2 | 
B,!accent!F,2 | 
B,F,,2 | 
B,,F,,2 | 
B,,!accent!D,2- | 
D,3- | 
D,3- | 
D,3 | 
D,zz | 
Z3 | 
B,C!accent!D/C/ | 
B,C/B,/A, | 
G,GE | 
F/E/D2 | 
CDE/D/ | 
C=F/E/D | 
CA,A/G/ | 
F/E/Dz | 
z3 | 
z!accent!A,2 | 
Dzz[K:clef=bass] | 
zB,,A,,/B,,/ | 
C,3 | 
G,,3 | 
C,3 | 
G,,3 | 
G,,/^F,,/G,,/A,,/B,,/^D,/ | 
E,/F,/A,/G,/E,/^C,/ | 
D,z.D,, |[1 
.G,,zG, :|][2 
.G,,!fermata!z |] 
 [K:C] [M:3/4]z[K:clef=tenor] [I:setbarnb 83]| 
!wedge!DA,B, | 
CG,G | 
FG/F/D/F/ | 
E3- | 
!accent!E2z | 
Z2 | 
.D,.G,,z[K:clef=tenor] | 
DA,D | 
CA,C[K:clef=bass] | 
[C3D,3] | 
CB,z[K:clef=tenor] & [D,2G,,2]x | 
G,>ED/E/ | 
CB,/A,/!mordent!G,/^F,/ | 
G,>ED/E/ | 
Cz [I:setbarnb 98]:|]|:  
[K:clef=bass]E,/F,/ | 
!wedge!G,zz | 
zzG,,/A,,/ | 
!wedge!_B,,zz | 
zE,D, | 
^C,zz | 
zzG,/A,/ | 
!wedge!_B,zG,,/A,,/ | 
!wedge!_B,,zC, | 
=B,,zz | 
zzA,,/B,,/ | 
!wedge!C,zz | 
z!wedge!C,,!accent!C, | 
!wedge!B,,zz | 
zzA,/B,/ | 
CzA,,/B,,/ | 
C,2B,, | 
B,,>G,^F,/G,/ | 
E,zz | 
Z2 | 
F>DF/C/ | 
B,zz | 
F/E/G/F/D/C/ | 
B,!accent!FE | 
!wedge!DA,B, | 
CG,G | 
FG/F/D/F/ | 
E3- | 
!accent!E2z | 
Z2 | 
!wedge!D,!wedge!G,,z[K:clef=tenor] | 
DA,D | 
CA,C[K:clef=bass] | 
[C3D,3] | 
CB,z[K:clef=tenor] & [D,2G,,2]x | 
G,>ED/E/ | 
CB,/A,/!mordent!G,/^F,/ | 
G,>ED/E/ | 
Cz :|]  
% FRACTION = 0.5BUT SHOULD BE 0
% FRACTION = 0.5BUT SHOULD BE 0
% FRACTION = 0.5BUT SHOULD BE 0
